X: 0
T: The Showman's Fancy
C: Trad
M: 4/4
L: 1/8
K: Dmaj
FG|:"D"AFAB A2fd|"G"B2gf edcB|"D"AFAB AFDF|"A"EDEF E2DF|
"D"AFAB A2fd|"G"B2gf edcB|"D"Adfa "A"gece|1 "D"d2dc d2FG:|2 "D"d2dc d2cd||
|:"Em"edef gece|"D"dcde fdAd|"Em"(3gag (3fgf (3efe (3ded|"D7"(3cdc (3BcB AGFG|
"D"AFAB A2fd|"G"B2gf edcB|"D"Adfa "A"gece|1"D"d2dc d2cd:|2 "D"d2dc d2|]